cssgg/view-month.svg

<svg
  width="24"
  height="24"
  viewBox="0 0 24 24"
  fill="none"
  xmlns="http://www.w3.org/2000/svg"
>
  <path
    fill-rule="evenodd"
    clip-rule="evenodd"
    d="M2 8C2 6.34315 3.34315 5 5 5H19C20.6569 5 22 6.34315 22 8V16C22 17.6569 20.6569 19 19 19H5C3.34315 19 2 17.6569 2 16V8ZM17 7H19C19.5523 7 20 7.44771 20 8V9H17V7ZM15 7H13V9H15V7ZM11 7H9V9H11V7ZM7 7H5C4.44772 7 4 7.44772 4 8V9H7V7ZM4 11V13H7V11H4ZM4 15V16C4 16.5523 4.44772 17 5 17H7V15H4ZM9 17H11V15H9V17ZM13 17H15V15H13V17ZM17 17H19C19.5523 17 20 16.5523 20 16V15H17V17ZM20 13V11H17V13H20ZM11 13H9V11H11V13ZM15 13H13V11H15V13Z"
    fill="currentColor"
  />
</svg>

<svg viewBox="0 0 24 24" xmlns="http://www.w3.org/2000/svg"><path fill-rule="evenodd" d="M2 8c0-1.66 1.34-3 3-3h14c1.65 0 3 1.34 3 3v8c0 1.65-1.35 3-3 3H5c-1.66 0-3-1.35-3-3V8Zm15-1h2c.55 0 1 .44 1 1v1h-3V7Zm-2 0h-2v2h2V7Zm-4 0H9v2h2V7ZM7 7H5c-.56 0-1 .44-1 1v1h3V7Zm-3 4v2h3v-2H4Zm0 4v1c0 .55.44 1 1 1h2v-2H4Zm5 2h2v-2H9v2Zm4 0h2v-2h-2v2Zm4 0h2c.55 0 1-.45 1-1v-1h-3v2Zm3-4v-2h-3v2h3Zm-9 0H9v-2h2v2Zm4 0h-2v-2h2v2Z"/></svg>
